X:1
T:Title
%%score 1 ( 2 3 )
L:1/8
Q:1/4=95
M:4/4
K:Ab
V:1 treble nm="Grand Piano, Soprano"
V:2 bass nm="Choir Pad, O Sinner, Won�t You Come?"
V:3 bass 
V:1
 E2 [Ec][Ec] [Ec][DB] [CA]2 | [EA][EG] [DF]2 [CE][A,C] [CE]2- | [CE][CE] [CA]2 [CA][CA] [FA]2 | %3
w: By~C.~Crroll~Smith * * * * *|||
 [Fc][Fc][=Dc][DB] [DB][DF] [_DB]2- | [DB][DE][CE][CE] [CA][DB] [Ec]2- | %5
w: ||
 [Ec][CA][CA][DB] [Ec][_Ge] [Fd]2- | [Fd][Fd][Fd][Ec] [EG][EA] [Ec]2 | [DB]2 [CA]6 | %8
w: |||
 [_GA]2 [Fd][DF] [DF][FA] [Fd]2- | [Fd][Fd][Ec][CA] [CE][CA] [Ec]2- | %10
w: ||
 [Ec][Ec][=Dc][DB] [DA][DB] [DA]2 | [=DF]2 E4 [Gd]2- | [Gd][DE][CE][CE] [EA][EB] [Ec]2- | %13
w: |||
 [Ec][CA][CA][DB] [Ec][_Ge] [Fd]2- | [Fd][Fd][Fd][Ec] [EG][EA] [Ec]2 | [DB]2 [CA]6- | %16
w: |||
 [CA]2 z2 z4 |] %17
w: |
V:2
 E,2 [A,,A,][A,,A,] [A,,A,][A,,A,] [A,,A,]2 | [C,A,][C,A,] [D,A,]2 [A,,A,][A,,E,] [A,,A,]2- | %2
 [A,,A,]A, A,2 A,A, [F,C]2 | [F,A,][F,A,][B,,A,][B,,A,] [B,,A,][F,A,] [E,G,]2- | %4
 [E,G,][E,G,][A,,A,][A,,A,] [A,,A,][A,,A,] [A,,A,]2- | %5
 [A,,A,][A,,A,][A,,A,][A,,A,] [A,,A,][C,A,] [D,A,]2- | %6
 [D,A,][D,A,][E,G,][E,G,] [E,D][E,C] [E,A,]2 | [E,G,]2 [A,,E,]6 | %8
 [A,C]2 [D,A,][D,A,] [D,A,][D,A,] [D,A,]2- | [D,A,][D,A,][A,,A,][A,,A,] [A,,A,][A,,A,] [A,,A,]2- | %10
 [A,,A,][A,,A,][B,,F,][B,,F,] [B,,F,][B,,F,] [B,,F,]2 | z2 G,4 z2 | z8 | z8 | z8 | %15
 [E,G,]2 [A,,E,]6- | [A,,E,]2 z2 z4 |] %17
V:3
 x8 | x8 | x8 | x8 | x8 | x8 | x8 | x8 | x8 | x8 | x8 | [B,,A,]2 E,4- [E,B,]2- | %12
 [E,B,][E,G,][A,,A,][A,,A,] [C,A,][E,G,] A,2- | A,A,A,A, A,[C,A,] [D,A,]2- | %14
 [D,A,][D,A,][E,G,][E,G,] [E,D][E,C] [E,A,]2 | x8 | x8 |] %17

